X: 1
T: McSweeney's
M: 4/4
L: 1/8
R: reel
K: Gmaj
DGGA B2 AG | Adfd cAFA | GFGA B2 AG | AdcA BG G2 :|
gbag fdde | fdge fddg | gfdg fdcA | dgfa g2 ga |
 bgaf gfde | =fefd cAFA | G3 A B2 AG | Adfd cAFA |
